assets/icons/vscom/clock.svg

<svg xmlns="http://www.w3.org/2000/svg" viewBox="-963 -219 1000 1000" enable-background="new -963 -219 1000 1000"><path d="M-463 781c-241.25 0-437.5-196.313-437.5-437.5 0-241.25 196.25-437.5 437.5-437.5 241.188 0 437.5 196.25 437.5 437.5 0 241.188-196.312 437.5-437.5 437.5zm0-812.5c-206.813 0-375 168.188-375 375s168.188 375 375 375 375-168.188 375-375-168.188-375-375-375zm187.5 375v62.5h-250v-312.5h62.5v250h187.5z"/></svg>

<?xml version="1.0" encoding="utf-8"?>
<!-- Generator: Adobe Illustrator 19.1.0, SVG Export Plug-In . SVG Version: 6.00 Build 0)  -->
<svg version="1.1" id="Layer_1" xmlns="http://www.w3.org/2000/svg" xmlns:xlink="http://www.w3.org/1999/xlink" x="0px" y="0px"
	 viewBox="-963 -219 1000 1000" enable-background="new -963 -219 1000 1000" xml:space="preserve">
<path id="outline" d="M-463,781c-241.25,0-437.5-196.313-437.5-437.5C-900.5,102.25-704.25-94-463-94
	c241.188,0,437.5,196.25,437.5,437.5C-25.5,584.688-221.812,781-463,781z M-463-31.5c-206.813,0-375,168.188-375,375
	s168.188,375,375,375s375-168.188,375-375S-256.188-31.5-463-31.5z M-275.5,343.5V406h-250V93.5h62.5v250H-275.5z"/>
</svg>
